images/footer/youtube.svg

<svg width="24" height="24" fill="none" xmlns="http://www.w3.org/2000/svg"><path fill-rule="evenodd" clip-rule="evenodd" d="M12 0C5.373 0 0 5.373 0 12s5.373 12 12 12 12-5.373 12-12S18.627 0 12 0Zm4.441 16.892c-2.102.144-6.784.144-8.883 0C5.282 16.736 5.017 15.622 5 12c.017-3.629.285-4.736 2.558-4.892 2.099-.144 6.782-.144 8.883 0C18.718 7.264 18.982 8.378 19 12c-.018 3.629-.285 4.736-2.559 4.892Zm-1.524-4.896L10 9.658v4.684l4.917-2.346Z" fill="#E7816B"/></svg>

<svg width="24" height="24" viewBox="0 0 24 24" fill="none" xmlns="http://www.w3.org/2000/svg">
<path id="Shape" fill-rule="evenodd" clip-rule="evenodd" d="M12 0C5.373 0 0 5.373 0 12C0 18.627 5.373 24 12 24C18.627 24 24 18.627 24 12C24 5.373 18.627 0 12 0ZM16.441 16.892C14.339 17.036 9.657 17.036 7.558 16.892C5.282 16.736 5.017 15.622 5 12C5.017 8.371 5.285 7.264 7.558 7.108C9.657 6.964 14.34 6.964 16.441 7.108C18.718 7.264 18.982 8.378 19 12C18.982 15.629 18.715 16.736 16.441 16.892ZM14.917 11.996L10 9.658V14.342L14.917 11.996Z" fill="#E7816B"/>
</svg>
